X:1
T:Rimsky-Korsakov Harmonic Exercises 31
T:Rimsky-Korsakov Harmonic Exercises 31
T:"Practical Manual of Harmony" (1885)
T:Realizations by S. Shchetnikov
%%score { ( 1 2 ) | ( 3 4 ) }
L:1/8
Q:1/4=70
M:4/4
K:F
V:1 treble nm="Piano" snm="Pno."
V:2 treble 
V:3 bass 
V:4 bass 
V:1
"""^Example by Rimsky-Korsakov (R-K's remark: parallel fifths in the first measure\nare allowed, since the upper tone of the second fifth is appoggiatura) (\n""^Harmonisation of a melody containing free melodic figuration""_F:" (ABA^G Ac""=gf | %1
"" ed^cd"" =cBAG | %2
"" F^D""E"^auxiliary tones"=d"""_F:""_g:""_{" =Bc[Q:1/4=70]"^,"d[Q:1/4=67]"^appoggiaturas""^suspensions"c | %3
""[Q:1/4=64]"_g:""_F:""_{" A[Q:1/4=61]"^):""^passing tones""^,""^,"B""[Q:1/4=58]D[Q:1/4=55]E""[Q:1/4=52] G2[Q:1/4=30] !breath!F2) |] %4
[K:D][Q:1/4=80]"^Exercise 31.1" ((FGAc edcd | cB^AB- B=A^GA | ^decA gfe=d | cBF^G A4 | A^GAc edcd | %9
 e^dcd fede | =dcBA edcB | AEFG F4)) |]"""^Realization 31.1""_D:" (FGAc"" edcd | %13
"" cB^AB-"" B=A^GA |"" ^decA"" gf"""_D:""_A:""_{"e=d | cBF^G A4) |"_A:" (A^GAc edcd | %17
"""_E:""_A:""_{" e^d""cd"" fe"""_E:""_A:""_{"de | %18
[Q:1/4=80] =d[Q:1/4=78]"^.8"c""[Q:1/4=77]"^.5""_A:""_D:""_{"B[Q:1/4=76]"^.3"A""[Q:1/4=75] e[Q:1/4=73]"^.7"d""[Q:1/4=72]"^.5"c[Q:1/4=71]"^.3"B | %19
""[Q:1/4=70] A[Q:1/4=68]"^.8"E""[Q:1/4=55]FG""[Q:1/4=45] F4) |] %20
V:2
 (F6 c2 | F4 G2 D2 | C4"" F2"" _E2 |"" D2 C2 E2 F2) |][K:D] x8 | x8 | x8 | x8 | x8 | x8 | x8 | %11
 x8 |] (D2 F2 A4 | G4 F4 | A6"" F2 |"" E2"" D2"" C4) |"" (E4"" F4- |"" F2 A2"" ^G4 |"""" E4 F2 G2 | %19
 E4 D4) |] %20
V:3
 (C8 | B,4 D,3 G, | G,4 F,2 ^F,2 | G,2 B,2- B,2 A,2) |][K:D] z8 | z8 | z8 | z8 | z8 | z8 | z8 | %11
 z8 |] (A,8 | D8 | A,2 E2 D2 A,2 | ^G,2 B,2 A,4) | (A,8 | B,8 | A,6 D2 | C4 A,4) |] %20
V:4
 (F,6 A,,2 | B,,8 | C,2 B,,2 A,,4 | B,,2 C,2 F,,4) |][K:D] x8 | x8 | x8 | x8 | x8 | x8 | x8 | x8 |] %12
 (D,4 F,4 | G,4 D,4 | C,4 D,4 | E,4 A,4) | (C,4 D,4 | B,,4 E,4 | A,,2 C,2 D,2 G,,2 | A,,4 D,4) |] %20

